apps/site/public/icons/companies/railway.svg

<svg width="48" height="48" viewBox="0 0 48 48" fill="none" xmlns="http://www.w3.org/2000/svg">
<g clip-path="url(#clip0_4437_8894)">
<path d="M5.22535 21.2676C5.13506 21.9004 5.07631 22.5373 5.04932 23.176H33.8377C33.7372 22.9796 33.6021 22.8025 33.4659 22.6292C28.5443 16.2708 25.8969 16.8221 22.1097 16.6606C20.8471 16.6086 19.9908 16.5878 14.9649 16.5878C12.275 16.5878 9.35055 16.5946 6.5028 16.6022C6.13416 17.5973 5.77861 18.5617 5.6055 19.3463H20.3577V21.2676H5.22535ZM34.0646 25.0992H5.06408C5.09443 25.6119 5.14226 26.1177 5.21132 26.6167H31.9859C33.1795 26.6167 33.8476 25.9394 34.0646 25.0992ZM6.71551 31.8581C6.71551 31.8581 11.1542 42.7569 23.9798 42.9505C31.6455 42.9505 38.2323 38.3977 41.2242 31.8581H6.71551Z" fill="#2D3748"/>
<path d="M23.9775 5.04956C16.8896 5.04956 10.7217 8.94181 7.46459 14.6955C10.01 14.6902 14.9672 14.6871 14.9672 14.6871H14.9683V14.6852C20.8278 14.6852 21.0456 14.7114 22.1902 14.7592L22.8989 14.7853C25.3677 14.8676 28.4021 15.1326 30.7896 16.9391C32.0856 17.9188 33.9569 20.0813 35.0723 21.6219C36.1035 23.0469 36.4002 24.6849 35.699 26.2543C35.0537 27.6967 33.6651 28.5571 31.9836 28.5571H5.66504C5.66504 28.5571 5.82171 29.2212 6.05663 29.9543H41.9823C42.6202 28.0367 42.9464 26.0291 42.9482 24.0081C42.9486 13.5386 34.455 5.04956 23.9775 5.04956Z" fill="#2D3748"/>
</g>
<defs>
<clipPath id="clip0_4437_8894">
<rect width="37.9009" height="37.9009" fill="white" transform="translate(5.04932 5.04953)"/>
</clipPath>
</defs>
</svg>

<svg xmlns="http://www.w3.org/2000/svg" width="48" height="48" fill="none" viewBox="0 0 48 48"><g fill="#2d3748" clip-path="url(#a)"><path d="M5.225 21.268a19 19 0 0 0-.176 1.908h28.789a3.4 3.4 0 0 0-.372-.547c-4.922-6.358-7.57-5.807-11.356-5.968-1.263-.052-2.12-.073-7.145-.073-2.69 0-5.614.007-8.462.014-.369.995-.724 1.96-.897 2.744h14.752v1.922zm28.84 3.831h-29q.044.77.146 1.518h26.775c1.193 0 1.862-.678 2.079-1.518m-27.35 6.76s4.44 10.898 17.265 11.091c7.665 0 14.252-4.552 17.244-11.092z"/><path d="M23.978 5.05c-7.088 0-13.256 3.892-16.513 9.645 2.545-.005 7.502-.008 7.502-.008h.001v-.002c5.86 0 6.078.026 7.222.074l.709.026c2.469.083 5.503.348 7.89 2.154 1.297.98 3.168 3.142 4.283 4.683 1.031 1.425 1.328 3.063.627 4.632-.645 1.443-2.034 2.303-3.715 2.303H5.665s.157.664.392 1.397h35.925a18.9 18.9 0 0 0 .966-5.946c0-10.47-8.493-18.958-18.97-18.958"/></g><defs><clipPath id="a"><path fill="#fff" d="M5.05 5.05h37.9v37.9H5.05z"/></clipPath></defs></svg>
